X:7366
T:The Star of Munster
O:england
R:Reel
S:Josie Nugent,Clare (fiddle)
D:Private tape
N:As played
M:4/4
K:G
AB || B {dcB}c2A {d}BAGB | (3.A.A.ABA GEDG  | EAAG ABcd | eaaf {a}gedB |
B {dcB}c2A {d}BAGB | (3.A.A.A BA GEDG | EAAG ABcd | egdB {d}BAAB |
B {dcB}c2A {dBA}B2 GB | A2BA GEDG | E {GED}E2G ABcd | ea {bag}a2 gedB |
B {dcB}c2d A {dBA}B2c | A2 {d}BA GEDG |E {GED}E2G ABcd | egdB {d}BAAg ||
ea {bag}a2 {b}ageg | agbg agef | f {agf}g2a gede | {age}g2ag {a}gedg |
ea(3.a.a.a ageg | agbg agef | f {agf}g2b a2ga | bgab gedg |
ea(3.a.a.a {b}ageg | agbg agef | f {agf}g2g {a}gede | {age}g2ag {a}gedg |
ea(3.a.a.a ageg | agbg agef |{age}g2 eg {bag}a2 ga | bgab gedB | A4 ||


